!!!COM:	Josquin des Prez
!!!CDT:	~1450-1521/08/27
!!!OPR:	Missa Pange lingua
!!!ONM:	3
!!!OTL:	Credo
!!!AGN:	Mass; Credo
!!!SCT:	NJE 4.3
!!!SCA:	New Josquin Edition 4.3
!!!voices: 4
!!!voices-OPR:	4
**kern	**kern	**kern	**kern
*staff4	*staff3	*staff2	*staff1
*Ivox	*Ivox	*Ivox	*Ivox
*I"Bassus	*I"Tenor	*I"Altus	*I"Superius
*I'B	*I'T	*I'A	*I'S
*>[A,B,C,D]	*>[A,B,C,D]	*>[A,B,C,D]	*>[A,B,C,D]
*>Credo[A]	*>Credo[A]	*>Credo[A]	*>Credo[A]
*>Incarnatus[B]	*>Incarnatus[B]	*>Incarnatus[B]	*>Incarnatus[B]
*>Cricifixus[C]	*>Cricifixus[C]	*>Cricifixus[C]	*>Cricifixus[C]
*>Spiritum[D]	*>Spiritum[D]	*>Spiritum[D]	*>Spiritum[D]
*clefF4	*clefGv2	*clefGv2	*clefG2
*k[]	*k[]	*k[]	*k[]
*>A	*>A	*>A	*>A
*M2/1	*M2/1	*M2/1	*M2/1
*met(C|)	*met(C|)	*met(C|)	*met(C|)
=1-	=1-	=1-	=1-
!!section: Patrem
!!!OMD: Patrem
0r	0E	0r	0r
=2	=2	=2	=2
0r	1E	0r	0r
.	1E	.	.
=3	=3	=3	=3
0AA	1F	0r	0r
.	2E/	.	.
.	[2F/	.	.
=4	=4	=4	=4
1AA	2F/]	0r	0r
.	4E/	.	.
.	4D/	.	.
1AA	1E	.	.
=5	=5	=5	=5
1BB-i	2.D/	0r	0r
.	4E/	.	.
2AA/	2F/	.	.
[2BB-i/	2G/	.	.
=6	=6	=6	=6
2BB-/]	2D/	0r	0r
4AA/	1G	.	.
4GG/	.	.	.
1AA	.	.	.
.	2F#i/	.	.
=7	=7	=7	=7
2.GG/	0G	0r	0r
4AA/	.	.	.
2BB/	.	.	.
2C/	.	.	.
=8	=8	=8	=8
2GG/	1r	0r	0r
1C	.	.	.
.	1G	.	.
2BB/	.	.	.
=9	=9	=9	=9
0C	1G	0r	0r
.	1A	.	.
=10	=10	=10	=10
1r	2G/	0r	0r
.	2.c\	.	.
1C	.	.	.
.	4B\	.	.
.	[2A/	.	.
=11	=11	=11	=11
1C	4A/]	0r	0r
.	4G/	.	.
.	2E/	.	.
1D	1F	.	.
=12	=12	=12	=12
2C/	2E/	0r	0r
2.F\	2.A/	.	.
4E\	4G/	.	.
[2A\	[2c\	.	.
=13	=13	=13	=13
4A\]	4c\]	0r	0r
4G\	4B\	.	.
4F\	2.d\	.	.
4E\	.	.	.
2F\	.	.	.
.	4c\	.	.
2G\	[2e\	.	.
=14	=14	=14	=14
1C	4e\]	0r	0r
.	4d\	.	.
.	1c	.	.
1D	.	.	.
.	2B\	.	.
=15	=15	=15	=15
[0C	[0c	0r	0e
=16	=16	=16	=16
0C]	0c]	0r	1e
.	.	.	1e
=17	=17	=17	=17
0r	0r	0A	1f
.	.	.	2e/
.	.	.	[2f/
=18	=18	=18	=18
0r	0r	1A	2f/]
.	.	.	4e/
.	.	.	4d/
.	.	1A	1e
=19	=19	=19	=19
0r	0r	1B-	2.d/
.	.	.	4e/
.	.	2A/	2f/
.	.	[2B-i\	2g/
=20	=20	=20	=20
0r	0r	2B-\]	2d/
.	.	4A/	1g
.	.	4G/	.
.	.	1A	.
.	.	.	2f#i/
=21	=21	=21	=21
0r	0r	2.G/	0g
.	.	4A/	.
.	.	2B\	.
.	.	2c\	.
=22	=22	=22	=22
0r	0r	2G/	1r
.	.	1c	.
.	.	.	1g
.	.	2B\	.
=23	=23	=23	=23
0r	0r	0c	1g
.	.	.	1a
=24	=24	=24	=24
0r	0r	1r	2g/
.	.	.	2.cc\
.	.	1c	.
.	.	.	4b\
.	.	.	[2a/
=25	=25	=25	=25
0r	0r	1c	4a/]
.	.	.	4g/
.	.	.	2e/
.	.	1d	1f
=26	=26	=26	=26
0r	0r	2c\	2e/
.	.	2.f\	2.a/
.	.	4e\	4g/
.	.	[2a\	[2cc\
=27	=27	=27	=27
0r	0r	4a\]	4cc\]
.	.	4g\	4b\
.	.	4f\	2.dd\
.	.	4e\	.
.	.	2f\	.
.	.	.	4cc\
.	.	2g\	[2ee\
=28	=28	=28	=28
0r	0r	1c	4ee\]
.	.	.	4dd\
.	.	.	1cc
.	.	1d	.
.	.	.	2b\
=29	=29	=29	=29
0r	0r	[0c	1cc
.	.	.	1r
=30	=30	=30	=30
1.C	0r	0c]	1.g
2C/	.	.	2g/
=31	=31	=31	=31
2C/	0r	1.c	2g/
2C/	.	.	2g/
1F	.	.	1a
.	.	2c\	.
=32	=32	=32	=32
1E	0r	2c\	2g/
.	.	2c\	2e/
1D	.	1d	1f
=33	=33	=33	=33
1.A	1.c	1.e	1e
.	.	.	1a
4G\	2c\	2e\	.
4F\	.	.	.
=34	=34	=34	=34
2E\	2c\	1e	2.g/
2C/	2c\	.	.
.	.	.	4a/
1G	1d	2d\	4b\
.	.	.	4cc\
.	.	2g\	[2b\
=35	=35	=35	=35
1A	2c\	2f\	4b\]
.	.	.	4a/
.	2A/	2.e\	1a
1E	1B	.	.
.	.	4d\	.
.	.	2e\	2g#i/
=36	=36	=36	=36
1.F	[0A	2.c\	[0a
.	.	4A/	.
.	.	1A	.
2D\	.	.	.
=37	=37	=37	=37
1D	0A]	1.f	0a]
[1F	.	.	.
.	.	2e\	.
=38	=38	=38	=38
2F\]	0r	2d\	0r
2E\	.	2c\	.
2D\	.	2.f\	.
2C/	.	.	.
.	.	4e\	.
=39	=39	=39	=39
2.F\	0r	4d\	0r
.	.	4c\	.
.	.	1c	.
4E\	.	.	.
1D	.	.	.
.	.	2B\	.
=40	=40	=40	=40
0C	1r	0c	1.cc
.	[1c	.	.
.	.	.	2b\
=41	=41	=41	=41
0r	2c\]	0r	2a/
.	2B\	.	2g/
.	2A/	.	2.cc\
.	2G/	.	.
.	.	.	4b\
=42	=42	=42	=42
0r	2.c\	0r	4a/
.	.	.	4g/
.	.	.	1g
.	4B\	.	.
.	1A	.	.
.	.	.	2f#i/
=43	=43	=43	=43
0r	[0G	1r	1g
.	.	2.B\	1dd
.	.	4c\	.
=44	=44	=44	=44
1r	0G]	2d\	2b\
.	.	2d\	2.dd\
[1G	.	2d\	.
.	.	.	4cc\
.	.	2d\	4b\
.	.	.	4a/
=45	=45	=45	=45
2G\]	0r	1d	1b
2G\	.	.	.
2G\	.	1B	1dd
2G\	.	.	.
=46	=46	=46	=46
1A	0r	1c	2.cc\
.	.	.	4b\
1F	.	1d	1a
=47	=47	=47	=47
2.E\	1r	[0e	1g
4F\	.	.	.
1G	2.E/	.	1r
.	4F/	.	.
=48	=48	=48	=48
0C	2G/	0e]	2.e/
.	2G/	.	.
.	.	.	4f/
.	2G/	.	2g/
.	2G/	.	2g/
=49	=49	=49	=49
1r	1G	0r	2g/
.	.	.	2g/
1C	1E	.	2g/
.	.	.	2g/
=50	=50	=50	=50
1D	1F	0r	2f/
.	.	.	2d/
1BB	1G	.	1dd
=51	=51	=51	=51
[0AA	[0A	1e	0cc
.	.	1f	.
=52	=52	=52	=52
0AA]	0A]	2e\	2r
.	.	2e\	2cc\
.	.	[1e	2a/
.	.	.	[2cc\
=53	=53	=53	=53
0r	1A	1e]	4cc\]
.	.	.	4b\
.	.	.	2.a/
.	1B-i	1d	.
.	.	.	4g/
.	.	.	4g/
.	.	.	4f/
=54	=54	=54	=54
2.AA/	2A/	2.c\	2a/
.	2A/	.	2.cc\
4BB/	.	4d\	.
2C/	[1A	2e\	.
.	.	.	4b\
[2D\	.	[2f\	4a/
.	.	.	4g/
=55	=55	=55	=55
4D\]	1A]	4f\]	1f
4E\	.	4e\	.
4F\	.	2.d\	.
4D\	.	.	.
1E	1G	.	2.g/
.	.	4c#i\	.
.	.	4c#i\	.
.	.	4B\	4a/
=56	=56	=56	=56
2D\	2.F/	0d	2b-i\
2.F\	.	.	2.a/
.	4G/	.	.
.	2A/	.	.
4E\	.	.	4g/
4D\	[2B-i\	.	4f/
4C/	.	.	4e/
=57	=57	=57	=57
2D\	4B-\]	0r	1d
.	4A/	.	.
2BB/	2.G/	.	.
1AA	.	.	2r
.	4F#i/	.	.
.	4F#i/	.	2a/
.	4E/	.	.
=58	=58	=58	=58
0GG	0G	1d	2b\
.	.	.	2g/
.	.	2d\	2.dd\
.	.	[2d\	.
.	.	.	4b\
=59	=59	=59	=59
1G	2r	2d\]	2.b\
.	1G	2d\	.
.	.	.	4g/
2G\	.	1d	[1g
2G\	2G/	.	.
=60	=60	=60	=60
2E\	2G/	1e	2g/]
2.C/	2G/	.	4f/
.	.	.	4g/
.	1G	1r	2.e/
4D\	.	.	.
2E\	.	.	.
.	.	.	4c/
=61	=61	=61	=61
1AA	1A	1e	1c
1D	1r	1f	2r
.	.	.	2d/
=62	=62	=62	=62
2.C/	1A	2e\	4e/
.	.	.	4d/
.	.	2c\	4e/
4BB/	.	.	4f/
2GG/	1B-i	2.d\	4g/
.	.	.	4a/
2GG/	.	.	4b-i\
.	.	4e\	4g/
=63	=63	=63	=63
2D\	2A/	2f\	4a/
.	.	.	4g/
2D\	2F/	2d\	4a/
.	.	.	4b\
2.C/	2.G/	1e	4cc\
.	.	.	4dd\
.	.	.	4ee\
4BB/	4A/	.	4cc\
=64	=64	=64	=64
1GG	2B-i\	0d	1dd
.	2G/	.	.
1D	1A	.	2r
.	.	.	2a/
=65	=65	=65	=65
1GG	0G	2r	2.b\
.	.	2d\	.
.	.	.	4cc\
2r	.	2d\	1dd
2G\	.	2d\	.
=66	=66	=66	=66
2E\	2r	1e	1g
2C/	2G/	.	.
1G	2G/	1d	2r
.	2G/	.	2dd\
=67	=67	=67	=67
1D	1A	2r	2dd\
.	.	2d\	2a/
2r	1G	2d\	2b\
2G\	.	2d\	2cc\
=68	=68	=68	=68
2G\	2r	2.B\	1dd
2G\	2G/	.	.
.	.	4c\	.
1GG	2G/	2d\	2b\
.	2G/	2B\	2dd\
=69	=69	=69	=69
1AA	2.E/	2c\	1cc
.	.	2.e\	.
.	4F/	.	.
1GG	1G	.	1b
.	.	4d\	.
.	.	4d\	.
.	.	4c\	.
=70	=70	=70	=70
2r	2r	1e	1r
2C/	2E/	.	.
2D\	2F/	2r	2r
2E\	2G/	2e\	2b\
=71	=71	=71	=71
1AA	1A	2c\	2.cc\
.	.	2d\	.
.	.	.	4b\
2r	2r	1e	2g/
2AA/	2A/	.	[2a/
=72	=72	=72	=72
2BB/	2F/	0d	4a/]
.	.	.	4g/
2GG/	2G/	.	1g
1D	1A	.	.
.	.	.	2f#i/
=73	=73	=73	=73
[0GG	[0G	1r	0g
.	.	2.B\	.
.	.	4c\	.
=74	=74	=74	=74
0GG]	0G]	2d\	1r
.	.	2e\	.
.	.	1d	2.b\
.	.	.	4cc\
=75	=75	=75	=75
0r	0r	2G/	2dd\
.	.	2c\	2ee\
.	.	2B\	1dd
.	.	2G/	.
=76	=76	=76	=76
0r	0r	2c\	2g/
.	.	2A/	2cc\
.	.	2G/	2b\
.	.	4c\	2g/
.	.	4d\	.
=77	=77	=77	=77
0r	0r	4e\	2cc\
.	.	4f\	.
.	.	2.g\	2b\
.	.	.	2g/
.	.	4f\	.
.	.	[2d\	4dd\
.	.	.	4cc\
=78	=78	=78	=78
0r	0r	4d\]	4b\
.	.	4c\	4a/
.	.	2A/	1a
.	.	1B	.
.	.	.	2g#i/
=79	=79	=79	=79
0r	0r	2A/	1a
.	.	2D/	.
.	.	2d\	2d/
.	.	2B\	2dd\
=80	=80	=80	=80
0r	0r	2G/	2b\
.	.	2.c\	2g/
.	.	.	2.cc\
.	.	4B\	.
.	.	4A/	.
.	.	4G/	4b\
=81	=81	=81	=81
0r	0r	2F/	4a/
.	.	.	4g/
.	.	2G/	1g
.	.	1A	.
.	.	.	2f#i/
=82	=82	=82	=82
1G	0r	0G	2g/
.	.	.	2dd\
2C/	.	.	2ee\
[2G\	.	.	[2dd\
=83	=83	=83	=83
2G\]	1G	1d	2dd\]
2GG/	.	.	2b\
2C/	2G/	2e\	2cc\
2BB/	[2G/	[2d\	2dd\
=84	=84	=84	=84
1GG	2G/]	2d\]	1b
.	2G/	2B\	.
1r	2E/	2c\	1r
.	2F/	2d\	.
=85	=85	=85	=85
2r	1G	1B	2dd\
2GG/	.	.	2dd\
2C/	1r	1r	2ee\
2BB/	.	.	[2dd\
=86	=86	=86	=86
2GG/	2G/	2d\	2dd\]
2GG/	2G/	2d\	2b\
2C/	2G/	2e\	2cc\
2BB/	[2G/	[2d\	2dd\
=87	=87	=87	=87
1GG	2G/]	2d\]	2b\
.	2G/	2B\	2dd\
2r	2E/	2c\	2ee\
2D\	2F/	2d\	[2dd\
=88	=88	=88	=88
2GG/	1G	2B\	4dd\]
.	.	.	4cc\
2.G\	.	2G/	4b\
.	.	.	4a/
.	2G/	2.g\	2b\
4F\	.	.	.
4E\	2G/	.	[2g/
4D\	.	4f\	.
=89	=89	=89	=89
2E\	2G/	3.e\V	4g/]
.	.	.	4f/
2C/	2G/	6d\	4e/
.	.	3e\Z	.
.	.	.	4d/
1C	2.E/	3.c\V	1e
.	.	6B\	.
.	.	3c\Z	.
.	4F/	.	.
=90	=90	=90	=90
0GGl	0Gl	0Bl	0dl
!!LO:LB:i:g=z
=91||	=91||	=91||	=91||
*>B	*>B	*>B	*>B
!!section: Et incarnatus
!!!OMD: Et incarnatus
*M2/1	*M2/1	*M2/1	*M2/1
*met(C|)	*met(C|)	*met(C|)	*met(C|)
0C	0G	0c	0e
=92	=92	=92	=92
1AA	1A	1c	1e
1AA	1A	1c	1e
=93	=93	=93	=93
1D	1F	1.A	1f
1D	1F	.	1f
.	.	2B\	.
=94	=94	=94	=94
0C;	0G;	0c;	0e;
=95	=95	=95	=95
1r	1r	1r	1r
1AA	1A	1c	1e
=96	=96	=96	=96
1D	1A	1d	1f
1AA	1A	1c	1e
=97	=97	=97	=97
0D	0F	0A	0f
=98	=98	=98	=98
0C	0G	0c	0e
=99	=99	=99	=99
0GG;	0G;	0B;	0d;
=100	=100	=100	=100
0GG	0G	0B	0g
=101	=101	=101	=101
1GG	1G	1B	1g
[1C	[1E	[1c	[1g
=102	=102	=102	=102
1C]	1E]	1c]	1g]
1GG	1G	1B	1g
=103	=103	=103	=103
1D	1F	1A	1a
1BB	1D	1G	1b
=104	=104	=104	=104
0AA;	0E;	0A;	0cc;
=105	=105	=105	=105
0A	0c	0e	0cc
=106	=106	=106	=106
0F	0c	0f	0a
=107	=107	=107	=107
0D	0d	0f	0a
=108	=108	=108	=108
[0G	[0B	[0d	[0b
=109	=109	=109	=109
1G]	1B]	1d]	1b]
1C	1c	1e	1g
=110	=110	=110	=110
!LO:N:vis=0	!LO:N:vis=0	!LO:N:vis=0	!LO:N:vis=0
0C;	0c;	0e;	0g;
!!LO:LB:i:g=z
=111||	=111||	=111||	=111||
*>C	*>C	*>C	*>C
!!section: Crucifixus
!!!OMD: Crucifixus
*M2/1	*M2/1	*M2/1	*M2/1
*met(C|)	*met(C|)	*met(C|)	*met(C|)
0r	0r	1E	0r
.	.	1F	.
=112	=112	=112	=112
0r	0r	1E	1e
.	.	1D	1f
=113	=113	=113	=113
0r	0r	1.G	1e
.	.	.	1d
.	.	2G/	.
=114	=114	=114	=114
0r	0r	2.G/	1.g
.	.	4A/	.
.	.	2B\	.
.	.	[2c\	2g/
=115	=115	=115	=115
0r	0r	4c\]	2.g/
.	.	4d\	.
.	.	4e\	.
.	.	4f\	4a/
.	.	2g\	4b\
.	.	.	4cc\
.	.	[2f\	[2dd\
=116	=116	=116	=116
0r	0r	4f\]	4dd\]
.	.	4e\	4cc\
.	.	4d\	1cc
.	.	4c\	.
.	.	1d	.
.	.	.	2b\
=117	=117	=117	=117
0r	0r	0c	1cc
.	.	.	2r
.	.	.	2cc\
=118	=118	=118	=118
0r	0r	2r	2cc\
.	.	2c\	2cc\
.	.	2f\	2a/
.	.	2e\	2cc\
=119	=119	=119	=119
0r	0r	2d\	2b\
.	.	2c\	2.a/
.	.	1B	.
.	.	.	4g#i/
.	.	.	4g#i/
.	.	.	4f#i/
=120	=120	=120	=120
1r	1r	1A	1a
[1D	[1d	[1f	2r
.	.	.	[2a/
=121	=121	=121	=121
2D\]	2d\]	2f\]	2a/]
2D\	2d\	2f\	2a/
2D\	2d\	2f\	2a/
2D\	2d\	2f\	2f/
=122	=122	=122	=122
1E	2.c\	2e\	1g
.	.	1c	.
.	4B\	.	.
1F	1A	.	1a
.	.	4B\	.
.	.	4A/	.
=123	=123	=123	=123
0G	1G	[0B	0d
.	2r	.	.
.	2d\	.	.
=124	=124	=124	=124
2r	2d\	1B]	0r
2G\	2d\	.	.
2G\	2.B\	2r	.
2G\	.	2g\	.
.	4G/	.	.
=125	=125	=125	=125
2.E\	1G	2g\	0r
.	.	2g\	.
4C/	.	.	.
1C	2.c\	2.e\	.
.	4B\	4c\	.
=126	=126	=126	=126
1.F	4A/	2c\	0r
.	4G/	.	.
.	1A	1d	.
2E\	2G/	2c\	.
=127	=127	=127	=127
2D\	2F/	2B\	1r
2C/	2E/	2.A/	.
1BB	1D	.	1dd
.	.	4G#i/	.
.	.	4G#i/	.
.	.	4F#i/	.
=128	=128	=128	=128
0AA	1E	1A	2.cc\
.	.	.	4b\
.	1c	1A	4a/
.	.	.	4g/
.	.	.	[2a/
=129	=129	=129	=129
2r	1A	2.F/	4a/]
.	.	.	4g/
2D\	.	.	4f/
.	.	4D/	4e/
2D\	1d	2D/	2f/
2BB-/	.	2d\	2b-i\
=130	=130	=130	=130
1C	2.c\	1e	2a/
.	.	.	2.g/
.	4B\	.	.
1D	1A	[1d	.
.	.	.	4f#i/
.	.	.	4f#i/
.	.	.	4e/
=131	=131	=131	=131
1GG	1G	1d]	2g/
.	.	.	2d/
1r	2r	1r	2g/
.	2D/	.	2a/
=132	=132	=132	=132
0r	2G/	0r	2b\
.	2A/	.	2cc\
.	2B\	.	2dd\
.	2c\	.	2g/
=133	=133	=133	=133
2r	1d	0r	2r
2G\	.	.	2dd\
2B\	1G	.	2dd\
2B\	.	.	2dd\
=134	=134	=134	=134
2.A\	2r	0r	2.cc\
.	2c\	.	.
4G\	.	.	4b\
2F\	2c\	.	2a/
2E\	2c\	.	2g/
=135	=135	=135	=135
0D	2.d\	1r	1f
.	4c\	.	.
.	2B\	2r	2r
.	2A/	2d\	2f/
=136	=136	=136	=136
2r	1G	2.d\	2.g/
2GG/	.	.	.
.	.	4d\	4g/
2.C/	2r	2e\	2g/
.	2G/	2e\	2g/
4C/	.	.	.
=137	=137	=137	=137
2C/	2.c\	2e\	2g/
2C/	.	2e\	2g/
.	4c\	.	.
2C/	2c\	1e	1g
2C/	2c\	.	.
=138	=138	=138	=138
1C	2c\	2r	2r
.	2c\	2e\	2g/
2r	2c\	2e\	2g/
2C/	2c\	2e\	2g/
=139	=139	=139	=139
2C/	2c\	1e	1.g
2C/	2c\	.	.
1C	2c\	2r	.
.	2c\	2e\	2e/
=140	=140	=140	=140
2D\	1A	1d	1f
2F\	.	.	.
1E	1B	1e	1g
=141	=141	=141	=141
2AA/	1A	2c\	1a
2A\	.	2e\	.
2A\	1r	2f\	1r
2G\	.	[2e\	.
=142	=142	=142	=142
1F	0r	4e\]	0r
.	.	4d\	.
.	.	1d	.
1E	.	.	.
.	.	2c#i\	.
=143	=143	=143	=143
0D	2r	0d	2r
.	2d\	.	2a/
.	2d\	.	2b\
.	2c\	.	[2a/
=144	=144	=144	=144
1r	1B	1r	4a/]
.	.	.	4g/
.	.	.	1g
1D	1A	1d	.
.	.	.	2f#i/
=145	=145	=145	=145
1GG	0G	1B	1g
[1C	.	[1c	2.e/
.	.	.	4f/
=146	=146	=146	=146
1C]	2.E/	1c]	1g
.	4F/	.	.
1GG	1G	1B	1g
=147	=147	=147	=147
1.C	1G	1r	1r
.	1G	1E	1g
2BB/	.	.	.
=148	=148	=148	=148
1AA	1F	1C	1a
1GG	1G	1D	1b
=149	=149	=149	=149
0C	0A	0E	0cc
=150	=150	=150	=150
0GG	0G	0D	0b
!!LO:LB:i:g=z
=151||	=151||	=151||	=151||
*>D	*>D	*>D	*>D
!!section: Et in spiritum
!!!OMD: Et in spiritum
*M2/1	*M2/1	*M2/1	*M2/1
*met(C|)	*met(C|)	*met(C|)	*met(C|)
1.G	1.G	0r	0r
2F\	2A/	.	.
=152	=152	=152	=152
2G\	2B\	0r	0r
2E\	2c\	.	.
2D\	1d	.	.
[2G\	.	.	.
=153	=153	=153	=153
2G\]	2G/	0r	0r
2F\	2A/	.	.
2G\	2B\	.	.
2E\	2c\	.	.
=154	=154	=154	=154
2D\	1d	0r	0r
2G\	.	.	.
2F\	2r	.	.
2D\	2d\	.	.
=155	=155	=155	=155
2E\	2c\	0r	0r
2.F\	2A/	.	.
.	1c	.	.
4E\	.	.	.
[2A\	.	.	.
=156	=156	=156	=156
4A\]	1B	0r	0r
4G#i\	.	.	.
4G#i\	.	.	.
4F#i\	.	.	.
1A	2A/	.	.
.	2D/	.	.
=157	=157	=157	=157
2r	2E/	0r	0r
2D\	2F/	.	.
2E\	2G/	.	.
2F\	2A/	.	.
=158	=158	=158	=158
2G\	2B\	0r	0r
2E\	2c\	.	.
2F\	2d\	.	.
2G\	[2e\	.	.
=159	=159	=159	=159
2A\	4e\]	0r	0r
.	4d\	.	.
2F\	1d	.	.
1E	.	.	.
.	2c#i\	.	.
=160	=160	=160	=160
0D	0d	2r	2r
.	.	2d\	2a/
.	.	2f\	2a/
.	.	2f\	2a/
=161	=161	=161	=161
0r	0r	2e\	2g/
.	.	2c\	2e/
.	.	2d\	2f/
.	.	2B\	2g/
=162	=162	=162	=162
2r	2r	1A	2a/
1F	1c	.	1a
.	.	2f\	.
2F\	2c\	2f\	2a/
=163	=163	=163	=163
2F\	2c\	2f\	2a/
2F\	2c\	2f\	2a/
1F	2.A/	1f	1a
.	4B\	.	.
=164	=164	=164	=164
1C	1c	1e	0g
[1G	2r	[1d	.
.	[2B\	.	.
=165	=165	=165	=165
2G\]	2B\]	2d\]	0r
2F\	2A/	2d\	.
2E\	2G/	2c\	.
2D\	2F/	[2B\	.
=166	=166	=166	=166
1C	1E	4B\]	0r
.	.	4A/	.
.	.	1A	.
1BB	1D	.	.
.	.	2G#i/	.
=167	=167	=167	=167
0AA	1E	0A	1r
.	[1A	.	[1cc
=168	=168	=168	=168
0r	2A/]	0r	2cc\]
.	2G/	.	2b\
.	2F/	.	2a/
.	2E/	.	2g/
=169	=169	=169	=169
0r	2D/	0r	1f
.	2.d\	.	.
.	.	.	1e
.	4c#i\	.	.
.	4c#i\	.	.
.	4B\	.	.
=170	=170	=170	=170
1r	1d	1.f	1d
[1F	2r	.	[1a
.	[2A/	2e\	.
=171	=171	=171	=171
2F\]	2A/]	1c	2a/]
2F\	2A/	.	2a/
2F\	2A/	1d	2a/
2F\	2A/	.	2a/
=172	=172	=172	=172
1E	1B	1e	1g
1C	1c	1e	1e
=173	=173	=173	=173
1D	2B\	1d	1f
.	2.A/	.	.
1E	.	1B	1g
.	4G/	.	.
.	4G/	.	.
.	4F/	.	.
=174	=174	=174	=174
0AA	2.A/	0c	1e
.	4B\	.	.
.	4c\	.	2r
.	4d\	.	.
.	[2e\	.	2e/
=175	=175	=175	=175
0r	4e\]	1r	2f/
.	4d\	.	.
.	1d	.	2f/
.	.	1A	1e
.	2c#i\	.	.
=176	=176	=176	=176
0r	1d	2B\	2d/
.	.	2B\	2d/
.	1r	1A	2e/
.	.	.	2f/
=177	=177	=177	=177
0r	0r	2G/	1g
.	.	2G/	.
.	.	2A/	2r
.	.	2B\	2g/
=178	=178	=178	=178
0r	0r	1c	2g/
.	.	.	2g/
.	.	2r	2a/
.	.	2G/	2b\
=179	=179	=179	=179
0r	0r	2.c\	1.cc
.	.	4d\	.
.	.	2e\	.
.	.	2f\	4b\
.	.	.	4a/
=180	=180	=180	=180
0r	0r	1.g	2.b\
.	.	.	4a/
.	.	.	4b\
.	.	.	4cc\
.	.	2f\	[2dd\
=181	=181	=181	=181
0r	0r	1e	4dd\]
.	.	.	4cc\
.	.	.	1cc
.	.	1d	.
.	.	.	2b\
=182	=182	=182	=182
0r	0r	1c	1cc
.	.	1r	1r
=183	=183	=183	=183
*M3/1	*M3/1	*M3/1	*M3/1
*met(3)	*met(3)	*met(3)	*met(3)
1C	1c	1e	1g
1C	1c	1e	1g
1C	1c	1e	1g
=184	=184	=184	=184
1.F	1A	0f	0a
.	1c	.	.
2E\	.	.	.
1D	1B	1r	1r
=185	=185	=185	=185
1C	1.A	0.r	0.r
1D	.	.	.
.	2F#i/	.	.
1BB	1G#i	.	.
=186	=186	=186	=186
0.AA	0.A	1e	1cc
.	.	1e	1cc
.	.	1e	1cc
=187	=187	=187	=187
0.r	0.r	1.f	1a
.	.	.	1cc
.	.	2e\	.
.	.	1d	1b
=188	=188	=188	=188
0.r	0.r	1c	1.a
.	.	1d	.
.	.	.	2f#i/
.	.	1B	1g#i
=189	=189	=189	=189
0A	0.r	1A	1a
.	.	1e	1cc
1A	.	1f	1cc
=190	=190	=190	=190
1G	1r	1g	1b
1A	1c	1e	1cc
1F	1c	1f	1a
=191	=191	=191	=191
1G	1B	1d	1g
1C	1c	1e	1e
1D	1A	1d	1f
=192	=192	=192	=192
*M2/1	*M2/1	*M2/1	*M2/1
*met()	*met()	*met(C|)	*met(C|)
3%2.E	3%4G	2.B\	1g
.	.	4G/	.
3D\	.	1G	1g
3%2C	3%2E	.	.
=193	=193	=193	=193
3%2BB	3%2G	0r	1r
3%4AA	3%2.F#i	.	.
.	.	.	1a
.	3E/	.	.
=194	=194	=194	=194
3%4.GG	3%4.G	1d	1.b
.	.	[1e	.
.	.	.	2g/
=195	=195	=195	=195
3%4.r	3%4.r	2e\]	2.g/
.	.	2c\	.
.	.	.	4e/
.	.	2.c\	1e
.	.	4A/	.
=196	=196	=196	=196
3%4.r	3%4.r	1A	1.a
.	.	[1d	.
.	.	.	2a/
=197	=197	=197	=197
3%4.r	3%4.r	2d\]	2a/
.	.	2d\	2a/
.	.	2d\	2.f/
.	.	2d\	.
.	.	.	4d/
=198	=198	=198	=198
3%4.r	3%4.r	2.B\	1d
.	.	4G/	.
.	.	2G/	[1g
.	.	2B\	.
=199	=199	=199	=199
3%4.r	3%4.r	2c\	2g/]
.	.	2.d\	2f/
.	.	.	1e
.	.	4c#i\	.
.	.	4c#i\	.
.	.	4B\	.
=200	=200	=200	=200
*	*	*	*M2/1
*	*	*	*met(3)
3%2D	3%4.r	1d	3%4.d
3%2D	.	.	.
.	.	1r	.
3%2D	.	.	.
=201	=201	=201	=201
*	*	*M2/1	*
*	*	*met(3)	*
3%2.BB	3%4.r	3%2d	3%4.r
.	.	3%2d	.
3C/	.	.	.
3%2D	.	3%2d	.
=202	=202	=202	=202
3%2.GG	3%2G	3%2.B	3%4.r
.	3%2G	.	.
3AA/	.	3c\	.
3%2BB	3%2G	3%2d	.
=203	=203	=203	=203
3%2.C	3%2.E	3%2G	3%2g
.	.	3%2c	3%2g
3D\	3F/	.	.
3%2E	3%2G	3%2B	3%2g
=204	=204	=204	=204
3%2AA	3%2A	3%2.c	3%2.e
3%2A	3%2c	.	.
.	.	3d\	3f/
3%2E	3%2B	3%2e	3%2g
=205	=205	=205	=205
3%2.F	3%4A	3%2c	3%2a
.	.	3%2f	3%2.cc
3G\	.	.	.
3%2A	3%2c	3%2e	.
.	.	.	3b\
=206	=206	=206	=206
3%2D	3%2d	3%2f	3%2.a
3%4E	3%4B	3%4e	.
.	.	.	3g#i/
.	.	.	3g#i/
.	.	.	3f#i/
=207	=207	=207	=207
*M2/1	*M2/1	*M2/1	*M2/1
*met(C|)	*met(C|)	*met(C|)	*met(C|)
0AA	1A	2.c\	1a
.	.	4d\	.
.	2r	[1e	1cc
.	2A/	.	.
=208	=208	=208	=208
2r	2G/	0e]	2b\
2AA/	2A/	.	1cc
2.C/	2E/	.	.
.	2c\	.	4b\
4D\	.	.	4a/
=209	=209	=209	=209
2E\	2B\	1e	2g/
2AA/	1c	.	2a/
2.C/	.	2r	1e
.	4B\	[2e\	.
4D\	4A/	.	.
=210	=210	=210	=210
1E	1G	4e\]	1r
.	.	4d\	.
.	.	2B\	.
1AA	1A	2.c\	1cc
.	.	4B\	.
=211	=211	=211	=211
2r	1E	2G/	2b\
2AA/	.	2A/	1cc
2.C/	2r	1E	.
.	2c\	.	4b\
4D\	.	.	4a/
=212	=212	=212	=212
2E\	2B\	1r	2g/
2AA/	1c	.	2a/
2.C/	.	2r	1e
.	4B\	[2e\	.
4D\	4A/	.	.
=213	=213	=213	=213
1E	1G	4e\]	1r
.	.	4d\	.
.	.	2B\	.
1AA	1A	1c	1e
=214	=214	=214	=214
1r	[0El	[0Bl	1.g
1E	.	.	.
.	.	.	2e/
=215	=215	=215	=215
0El	0E]	0B]	0el
==	==	==	==
*-	*-	*-	*-
!!!RDF**kern: l=long note in original notation
!!!RDF**kern: i=editorial accidental
!!!RDF**kern: V=start of tuplet marker
!!!RDF**kern: Z=end of tuplet marker
!!!ENC:	Will Watson 01/09/2011; Victoria Chang 04/09/2011
!!!END:	2011/04/09/
!!!EED:	Jesse Rodin
!!!EEV:	2011/09/14/
!!attribution-level@Jos: 1 (secure)
!!!ONB:	Translated from MusicXML and edited on 2011/09/14/ by Craig Sapp
!!muse2ps: T^@{OPR}^u^@{ONM}{. }@{OTL}^C^@{COM}\n@{SCT}^i2I100v85,90,85,150c100Q16
